X:1
T:Into the Depths of the Sea
T:William Howard Doane
T:Into the Depths of the Sea
T:Public Domain
T:Public Domain
T:Public Domain
C:William Howard Doane
Z:Public Domain
%%score ( 1 2 ) ( 3 4 )
L:1/8
M:4/4
K:Ab
V:1 treble 
V:2 treble 
V:3 bass 
V:4 bass 
V:1
 [CE]2 | [CA]2 [Ec]>[DB] [CA] [CA]2 [EB] | [Ec]2 [Ec]>[Ec] [Ec]3 [Ec] | %3
w: 1.~Re-|joice ye with sing- ing who|trust in the Lord: Go|
w: 2.~O|seek Him be- liev- ing the|word of His grace, And|
w: 3.~The|bur- den so heav- y, at|Cal- va- ry fell, For|
w: 4.~Then|glad be our serv- ice; to|give day by day, Love’s|
 [EB]2 [Ed]>[Ec] [EB] [EB]2 [EB] | [EB]2 [EA][EB] [Ec]3 [CE] | [CA]2 [Ec]>[DB] [CA] [CA]2 [EB] | %6
w: tell His sal- va- tion with|hap- py ac- cord; He|saith in His mer- cy to|
w: find in the Sav- ior, the|light of His face; There|shin- eth His Gos- pel, the|
w: Christ is our ran- som, and|now all is well; Yea,|brok- en the bond- age, hence-|
w: will- ing al- le- giance to|all He may say; We’ll|sing in His glo- ry, there|
 [Ec]2 [Ec]>[_Gc] [Fd]3 [Fd] | [Ec]2 [EB]>[EB] [Ee]2 (3cBA x | [CE]2 [B,E]>[DE] [CA]2 || %9
w: you and to me, “Your|sins shall be cast in- to the|sea.” * * *|
w: sha- dows will flee; Our|sins shall be cast in- to the|sea. In- to the|
w: forth we are free; Our|sins shall be cast in- to the|sea. * * *|
w: ev- er to be, Our|sins shall be cast in- to the|sea. * * *|
"^Refrain" (3E[EF][EG] | (E2 (3EEE [EA]2) (3[EG][EA][EB] | (E2 (3EEE [Ec]2) (cd) | %12
w: |||
w: sea, Cal- va-|sea, * * * * His love is|o- * * * * cean, *|
w: |||
w: |||
 [Ee]2 [Ae]>[Ae] [Ae]2 [Ed][Ec] | [EB]2 [=DB][DA] [EG]2 (3EF[EG] | %14
w: ||
w: less * and free; In- to|the sea, Cal- va- ry’s sea, Our|
w: ||
w: ||
 (E2 (3EEE [EA]2) (3[EA][EB][Ec] | (D2 (3FFF [Fd]2) [Fd]2 | [Ec]2 [EB]>[EB] [Ee]2 (3[Ec][EB][EA] | %17
w: |||
w: be * * * * cast in- to|depths * * * * of|sea. * * * * * *|
w: |||
w: |||
 [CE]2 [B,E]>[DE] [CA]2 |] %18
w: |
w: |
w: |
w: |
V:2
 x2 | x8 | x8 | x8 | x8 | x8 | x8 | x6 cBA | x6 || E x | A4- x4 | c4- E2 x2 | x8 | x6 EF | A4- x4 | %15
w: |||||||depths of the||||||||
w: |||||||depths of the||ry’s|an|so bound-||sins shall|the|
w: |||||||depths of the||||||||
w: |||||||depths of the||||||||
 d4- x4 | x8 | x6 |] %18
w: |||
w: the|||
w: |||
w: |||
V:3
 [A,,A,]2 | [A,,A,]2 [A,,A,]>[A,,A,] [A,,A,] [A,,A,]2 [E,G,] | A,2 A,>A, A,3 [A,,A,] | %3
w: ~|~ ~ ~ ~ ~ ~|~ ~ ~ ~ ~|
 [E,G,]2 [E,B,]>[E,A,] [E,G,] [E,G,]2 [E,G,] | (E,D,)[C,A,][B,,G,] [A,,A,]3 [A,,A,] | %5
w: ~ ~ ~ ~ ~ ~|~ * ~ ~ ~ ~|
 [A,,A,]2 [A,,A,]>[A,,A,] [A,,A,] [A,,A,]2 [E,G,] | A,2 A,>A, [D,A,]3 [D,A,] | %7
w: ~ ~ ~ ~ ~ ~|~ ~ ~ ~ ~|
 [E,A,]2 [E,G,]>[D,G,] [C,A,]2 (3CB,A, x | [E,A,]2 [E,G,]>[E,G,] [A,,A,]2 || (3[E,G,][E,A,][E,B,] | %10
w: ~ ~ ~ ~ ~ ~ ~|sea, ~ ~ ~|~ Cal- va-|
 [A,,C]2 (3[A,,C][A,,C][A,,C] [A,,C]2 (3[D,B,][C,A,][B,,G,] | %11
w: ry’s sea, ~ ~ ~ ~ ~ ~|
 [A,,A,]2 (3[A,,A,][A,,A,][A,,A,] [A,,A,]2 (A,B,) | [A,C]2 [A,C]>[A,C] [A,C]2 [G,B,]A, | %13
w: ~ ~ ~ ~ ~ ~ *|~ ~ In- to the sea,|
 [E,G,]2 [B,,F,][B,,B,] [E,B,]2 (3[E,G,][=D,A,][_D,B,] | %14
w: ~ ~ ~ Cal- va- ry’s sea,|
 [C,A,]2 (3[A,,C][A,,C][A,,C] [A,,C]2 (3[A,C][G,B,][G,A,] | %15
w: |
 [F,A,]2 (3[D,A,][D,A,][D,A,] [D,A,]2 [D,A,]2 | %16
w: |
 [E,A,]2 [E,G,]>[D,G,] [C,A,]2 (3[A,,A,][B,,G,][C,A,] | [E,A,]2 [E,G,]>[E,B,] [A,,A,]2 |] %18
w: ||
V:4
 x2 | x8 | A,2 A,>A, A,3 x | x8 | G,2 x6 | x8 | A,2 A,>A, x4 | x6 CB,A, | x6 || x2 | x8 | x6 A,2 | %12
w: ||~ ~ ~ ~||~||~ ~ ~|In- to the||||~|
 x7 A, | x8 | x8 | x8 | x8 | x6 |] %18
w: ~||||||

